src/static/assets/img/fledge-logo.svg

<svg width="354" height="111" viewBox="0 0 354 111" version="1.1" xmlns="http://www.w3.org/2000/svg" xmlns:xlink="http://www.w3.org/1999/xlink">
<title>Group</title>
<desc>Created using Figma</desc>
<g id="Canvas" transform="translate(730 701)">
<g id="Group">
<g id="FLEDGE STUDIO">
<use xlink:href="#path0_fill" transform="translate(-730 -651.85)"/>
<use xlink:href="#path1_fill" transform="translate(-730 -651.85)"/>
<use xlink:href="#path2_fill" transform="translate(-730 -651.85)"/>
<use xlink:href="#path3_fill" transform="translate(-730 -651.85)"/>
<use xlink:href="#path4_fill" transform="translate(-730 -651.85)"/>
<use xlink:href="#path5_fill" transform="translate(-730 -651.85)"/>
<use xlink:href="#path6_fill" transform="translate(-730 -651.85)"/>
<use xlink:href="#path7_fill" transform="translate(-730 -651.85)"/>
<use xlink:href="#path8_fill" transform="translate(-730 -651.85)"/>
<use xlink:href="#path9_fill" transform="translate(-730 -651.85)"/>
<use xlink:href="#path10_fill" transform="translate(-730 -651.85)"/>
<use xlink:href="#path11_fill" transform="translate(-730 -651.85)"/>
</g>
<g id="Vector">
<use xlink:href="#path12_fill" transform="matrix(0.707107 0.707107 -0.707107 0.707107 -554 -727)"/>
</g>
<g id="Vector 2">
<use xlink:href="#path13_stroke" transform="matrix(1 -2.44929e-16 2.44929e-16 1 -570 -593)"/>
</g>
</g>
</g>
<defs>
<path id="path0_fill" d="M 0 0.35L 15.65 0.35L 15.65 4.4L 5.65 4.4L 5.65 17.9L 13.4 17.9L 13.4 21.9L 5.65 21.9L 5.65 40.85L 0 40.85L 0 0.35Z"/>
<path id="path1_fill" d="M 26.0312 0.35L 31.6812 0.35L 31.6812 36.8L 42.0312 36.8L 42.0312 40.85L 26.0312 40.85L 26.0312 0.35Z"/>
<path id="path2_fill" d="M 52.4043 0.35L 68.1043 0.35L 68.1043 4.55L 58.0543 4.55L 58.0543 17.95L 66.2043 17.95L 66.2043 21.95L 58.0543 21.95L 58.0543 36.8L 68.2043 36.8L 68.2043 40.85L 52.4043 40.85L 52.4043 0.35Z"/>
<path id="path3_fill" d="M 79.2656 0.35L 88.0656 0.35C 92.4323 0.35 95.5156 1.35 97.3156 3.35C 99.149 5.35 100.066 8.46667 100.066 12.7L 100.066 27.6C 100.066 32.0667 99.1656 35.4 97.3656 37.6C 95.599 39.7667 92.649 40.85 88.5156 40.85L 79.2656 40.85L 79.2656 0.35ZM 88.1156 36.8C 90.0823 36.8 91.499 36.4167 92.3656 35.65C 93.2656 34.8833 93.8156 33.85 94.0156 32.55C 94.249 31.2167 94.3656 29.2167 94.3656 26.55L 94.3656 13.4C 94.3656 11.1 94.2156 9.35 93.9156 8.15C 93.649 6.91667 93.0656 6.01667 92.1656 5.45C 91.2656 4.85 89.8656 4.55 87.9656 4.55L 84.9156 4.55L 84.9156 36.8L 88.1156 36.8Z"/>
<path id="path4_fill" d="M 121.783 41.35C 118.116 41.35 115.466 40.2 113.833 37.9C 112.199 35.5667 111.383 32.1167 111.383 27.55L 111.383 14C 111.383 10.8667 111.699 8.3 112.333 6.3C 112.999 4.26667 114.116 2.71667 115.683 1.65C 117.283 0.55 119.466 0 122.233 0C 125.966 0 128.649 0.95 130.283 2.85C 131.949 4.75 132.783 7.73333 132.783 11.8L 132.783 13.3L 127.483 13.3L 127.483 12.05C 127.483 10.1167 127.366 8.63333 127.133 7.6C 126.899 6.53333 126.399 5.73333 125.633 5.2C 124.899 4.66667 123.799 4.4 122.333 4.4C 120.766 4.4 119.599 4.76667 118.833 5.5C 118.066 6.2 117.566 7.15 117.333 8.35C 117.133 9.55 117.033 11.15 117.033 13.15L 117.033 28.15C 117.033 31.25 117.399 33.4833 118.133 34.85C 118.899 36.1833 120.349 36.85 122.483 36.85C 124.583 36.85 126.016 36.1167 126.783 34.65C 127.583 33.1833 127.983 30.8333 127.983 27.6L 127.983 24.8L 122.833 24.8L 122.833 20.8L 133.083 20.8L 133.083 40.85L 129.533 40.85L 128.983 36.2C 127.716 39.6333 125.316 41.35 121.783 41.35Z"/>
<path id="path5_fill" d="M 145.391 0.35L 161.091 0.35L 161.091 4.55L 151.041 4.55L 151.041 17.95L 159.191 17.95L 159.191 21.95L 151.041 21.95L 151.041 36.8L 161.191 36.8L 161.191 40.85L 145.391 40.85L 145.391 0.35Z"/>
<path id="path6_fill" d="M 199.728 41.3C 196.328 41.3 193.728 40.25 191.928 38.15C 190.161 36.05 189.178 33.1667 188.978 29.5L 193.978 28.15C 194.144 30.75 194.644 32.85 195.478 34.45C 196.344 36.05 197.761 36.85 199.728 36.85C 201.194 36.85 202.294 36.45 203.028 35.65C 203.794 34.8167 204.178 33.6333 204.178 32.1C 204.178 30.4667 203.828 29.1167 203.128 28.05C 202.428 26.95 201.311 25.7 199.778 24.3L 192.978 18.3C 191.611 17.0667 190.611 15.7667 189.978 14.4C 189.378 13 189.078 11.3167 189.078 9.35C 189.078 6.35 189.944 4.05 191.678 2.45C 193.411 0.816667 195.794 0 198.828 0C 201.994 0 204.361 0.850001 205.928 2.55C 207.494 4.25 208.444 6.88333 208.778 10.45L 203.978 11.75C 203.811 9.45 203.378 7.65 202.678 6.35C 201.978 5.01667 200.744 4.35 198.978 4.35C 195.744 4.35 194.128 5.83333 194.128 8.8C 194.128 10 194.328 11 194.728 11.8C 195.128 12.5667 195.811 13.4 196.778 14.3L 203.628 20.3C 205.394 21.9333 206.794 23.6667 207.828 25.5C 208.894 27.3 209.428 29.35 209.428 31.65C 209.428 34.6167 208.528 36.9667 206.728 38.7C 204.928 40.4333 202.594 41.3 199.728 41.3Z"/>
<path id="path7_fill" d="M 224.461 4.55L 217.111 4.55L 217.111 0.35L 237.261 0.35L 237.261 4.55L 230.111 4.55L 230.111 40.85L 224.461 40.85L 224.461 4.55Z"/>
<path id="path8_fill" d="M 257.28 41.3C 254.447 41.3 252.23 40.7333 250.63 39.6C 249.063 38.4667 247.98 36.8833 247.38 34.85C 246.78 32.8167 246.48 30.2667 246.48 27.2L 246.48 0.35L 251.88 0.35L 251.88 27.45C 251.88 30.5167 252.23 32.85 252.93 34.45C 253.663 36.05 255.113 36.85 257.28 36.85C 259.447 36.85 260.88 36.05 261.58 34.45C 262.313 32.85 262.68 30.5167 262.68 27.45L 262.68 0.35L 268.03 0.35L 268.03 27.2C 268.03 30.2667 267.73 32.8167 267.13 34.85C 266.53 36.8833 265.447 38.4667 263.88 39.6C 262.313 40.7333 260.113 41.3 257.28 41.3Z"/>
<path id="path9_fill" d="M 280.479 0.35L 289.279 0.35C 293.645 0.35 296.729 1.35 298.529 3.35C 300.362 5.35 301.279 8.46667 301.279 12.7L 301.279 27.6C 301.279 32.0667 300.379 35.4 298.579 37.6C 296.812 39.7667 293.862 40.85 289.729 40.85L 280.479 40.85L 280.479 0.35ZM 289.329 36.8C 291.295 36.8 292.712 36.4167 293.579 35.65C 294.479 34.8833 295.029 33.85 295.229 32.55C 295.462 31.2167 295.579 29.2167 295.579 26.55L 295.579 13.4C 295.579 11.1 295.428 9.35 295.129 8.15C 294.862 6.91667 294.279 6.01667 293.379 5.45C 292.479 4.85 291.079 4.55 289.179 4.55L 286.129 4.55L 286.129 36.8L 289.329 36.8Z"/>
<path id="path10_fill" d="M 313.646 0.35L 319.196 0.35L 319.196 40.85L 313.646 40.85L 313.646 0.35Z"/>
<path id="path11_fill" d="M 342.598 41.3C 338.631 41.3 335.781 40.1833 334.048 37.95C 332.348 35.6833 331.498 32.4167 331.498 28.15L 331.498 12.8C 331.498 8.6 332.365 5.41667 334.098 3.25C 335.831 1.08333 338.665 0 342.598 0C 346.531 0 349.348 1.1 351.048 3.3C 352.781 5.46667 353.648 8.63334 353.648 12.8L 353.648 28.2C 353.648 32.4 352.781 35.6333 351.048 37.9C 349.315 40.1667 346.498 41.3 342.598 41.3ZM 342.598 36.85C 344.698 36.85 346.115 36.2333 346.848 35C 347.581 33.7667 347.948 31.9 347.948 29.4L 347.948 11.65C 347.948 9.18333 347.581 7.36667 346.848 6.2C 346.115 5 344.698 4.4 342.598 4.4C 340.465 4.4 339.031 5 338.298 6.2C 337.565 7.36667 337.198 9.18333 337.198 11.65L 337.198 29.4C 337.198 31.9 337.565 33.7667 338.298 35C 339.031 36.2333 340.465 36.85 342.598 36.85Z"/>
<path id="path12_fill" d="M 32.81 4.95121L 10.0098 27.7705C 9.72376 28.0507 9.56008 28.4324 9.55438 28.8326L 9.55438 49.8009L 0.446429 58.9044C 0.160585 59.1901 1.65424e-07 59.5776 1.65424e-07 59.9816C 1.65424e-07 60.3856 0.160585 60.7731 0.446429 61.0588C 0.732272 61.3445 1.11996 61.5051 1.5242 61.5051C 1.92845 61.5051 2.31613 61.3445 2.60198 61.0588L 11.7099 51.9554L 32.6886 51.9554C 33.089 51.9497 33.4709 51.7861 33.7512 51.5002L 56.5818 28.6809C 58.1426 27.1208 59.3808 25.2687 60.2255 23.2303C 61.0703 21.1919 61.5051 19.0072 61.5051 16.8009C 61.5051 14.5946 61.0703 12.4098 60.2255 10.3715C 59.3808 8.33308 58.1426 6.48097 56.5818 4.92086C 55.0209 3.36076 53.1679 2.12321 51.1285 1.27889C 49.0891 0.434567 46.9033 -1.23039e-07 44.6959 -1.23039e-07C 40.2378 -1.23039e-07 35.9623 1.77009 32.81 4.92086L 32.81 4.95121ZM 32.051 49.0119L 14.7459 49.0119L 23.8539 39.9085L 41.0375 39.9085L 32.051 49.0119ZM 54.4262 26.6478L 43.7396 37.3292C 43.5068 37.0813 43.196 36.9207 42.8591 36.874L 26.738 36.874L 48.1721 15.6326C 48.474 15.3308 48.6437 14.9215 48.6437 14.4947C 48.6437 14.0679 48.474 13.6585 48.1721 13.3567C 47.8701 13.0549 47.4606 12.8854 47.0336 12.8854C 46.6066 12.8854 46.197 13.0549 45.8951 13.3567L 22.0019 37.3595L 12.4993 46.7664L 12.4993 29.4699L 21.6072 20.3664L 21.6072 24.7361C 21.6072 25.1384 21.7672 25.5244 22.0518 25.8089C 22.3365 26.0934 22.7226 26.2533 23.1252 26.2533C 23.5278 26.2533 23.9139 26.0934 24.1986 25.8089C 24.4833 25.5244 24.6432 25.1384 24.6432 24.7361L 24.6432 17.4533L 34.9656 7.10569C 37.5462 4.52632 41.0463 3.07725 44.6959 3.07725C 48.3455 3.07725 51.8456 4.52632 54.4262 7.10569C 57.0069 9.68506 58.4566 13.1834 58.4566 16.8312C 58.4566 20.479 57.0069 23.9774 54.4262 26.5567L 54.4262 26.6478Z"/>
<path id="path13_stroke" d="M 0 3L 34 3L 34 -3L 0 -3L 0 3Z"/>
</defs>
</svg>

<svg xmlns="http://www.w3.org/2000/svg" width="354" height="111" xmlns:xlink="http://www.w3.org/1999/xlink">
  <desc>
    Created using Figma
  </desc>
  <g transform="translate(0 49.15)">
    <use xlink:href="#a"/>
    <use xlink:href="#b"/>
    <use xlink:href="#c"/>
    <use xlink:href="#d"/>
    <use xlink:href="#e"/>
    <use xlink:href="#f"/>
    <use xlink:href="#g"/>
    <use xlink:href="#h"/>
    <use xlink:href="#i"/>
    <use xlink:href="#j"/>
    <use xlink:href="#k"/>
    <use xlink:href="#l"/>
  </g>
  <use xlink:href="#m" transform="rotate(45 119.385 199.45)"/>
  <use xlink:href="#n" transform="translate(160 108)"/>
  <defs>
    <path id="a" d="M0 .35h15.65V4.4h-10v13.5h7.75v4H5.65v18.95H0V.35z"/>
    <path id="b" d="M26.03.35h5.65V36.8h10.35v4.05h-16V.35z"/>
    <path id="c" d="M52.404.35h15.7v4.2h-10.05v13.4h8.15v4h-8.15V36.8h10.15v4.05h-15.8V.35z"/>
    <path id="d" d="M79.266.35h8.8c4.366 0 7.45 1 9.25 3 1.833 2 2.75 5.117 2.75 9.35v14.9c0 4.467-.9 7.8-2.7 10-1.767 2.167-4.717 3.25-8.85 3.25h-9.25V.35zm8.85 36.45c1.966 0 3.383-.383 4.25-1.15.9-.767 1.45-1.8 1.65-3.1.233-1.333.35-3.333.35-6V13.4c0-2.3-.15-4.05-.45-5.25-.267-1.233-.85-2.133-1.75-2.7-.9-.6-2.3-.9-4.2-.9h-3.05V36.8h3.2z"/>
    <path id="e" d="M121.783 41.35c-3.667 0-6.317-1.15-7.95-3.45-1.634-2.333-2.45-5.783-2.45-10.35V14c0-3.133.316-5.7.95-7.7.666-2.033 1.783-3.583 3.35-4.65 1.6-1.1 3.783-1.65 6.55-1.65 3.733 0 6.416.95 8.05 2.85 1.666 1.9 2.5 4.883 2.5 8.95v1.5h-5.3v-1.25c0-1.933-.117-3.417-.35-4.45-.234-1.067-.734-1.867-1.5-2.4-.734-.533-1.834-.8-3.3-.8-1.567 0-2.734.367-3.5 1.1-.767.7-1.267 1.65-1.5 2.85-.2 1.2-.3 2.8-.3 4.8v15c0 3.1.366 5.333 1.1 6.7.766 1.333 2.216 2 4.35 2 2.1 0 3.533-.733 4.3-2.2.8-1.467 1.2-3.817 1.2-7.05v-2.8h-5.15v-4h10.25v20.05h-3.55l-.55-4.65c-1.267 3.433-3.667 5.15-7.2 5.15z"/>
    <path id="f" d="M145.39.35h15.7v4.2h-10.05v13.4h8.15v4h-8.15V36.8h10.15v4.05h-15.8V.35z"/>
    <path id="g" d="M199.728 41.3c-3.4 0-6-1.05-7.8-3.15-1.767-2.1-2.75-4.983-2.95-8.65l5-1.35c.166 2.6.666 4.7 1.5 6.3.866 1.6 2.283 2.4 4.25 2.4 1.466 0 2.566-.4 3.3-1.2.766-.833 1.15-2.017 1.15-3.55 0-1.633-.35-2.983-1.05-4.05-.7-1.1-1.817-2.35-3.35-3.75l-6.8-6c-1.367-1.233-2.367-2.533-3-3.9-.6-1.4-.9-3.083-.9-5.05 0-3 .866-5.3 2.6-6.9C193.41.817 195.794 0 198.828 0c3.166 0 5.533.85 7.1 2.55 1.566 1.7 2.516 4.333 2.85 7.9l-4.8 1.3c-.167-2.3-.6-4.1-1.3-5.4-.7-1.333-1.934-2-3.7-2-3.234 0-4.85 1.483-4.85 4.45 0 1.2.2 2.2.6 3 .4.767 1.083 1.6 2.05 2.5l6.85 6c1.766 1.633 3.166 3.367 4.2 5.2 1.066 1.8 1.6 3.85 1.6 6.15 0 2.967-.9 5.317-2.7 7.05-1.8 1.733-4.134 2.6-7 2.6z"/>
    <path id="h" d="M224.46 4.55h-7.35V.35h20.15v4.2h-7.15v36.3h-5.65V4.55z"/>
    <path id="i" d="M257.28 41.3c-2.833 0-5.05-.567-6.65-1.7-1.567-1.133-2.65-2.717-3.25-4.75-.6-2.033-.9-4.583-.9-7.65V.35h5.4v27.1c0 3.067.35 5.4 1.05 7 .733 1.6 2.183 2.4 4.35 2.4s3.6-.8 4.3-2.4c.733-1.6 1.1-3.933 1.1-7V.35h5.35V27.2c0 3.067-.3 5.617-.9 7.65-.6 2.033-1.683 3.617-3.25 4.75s-3.767 1.7-6.6 1.7z"/>
    <path id="j" d="M280.48.35h8.8c4.365 0 7.45 1 9.25 3 1.832 2 2.75 5.117 2.75 9.35v14.9c0 4.467-.9 7.8-2.7 10-1.768 2.167-4.718 3.25-8.85 3.25h-9.25V.35zm8.85 36.45c1.965 0 3.382-.383 4.25-1.15.9-.767 1.45-1.8 1.65-3.1.232-1.333.35-3.333.35-6V13.4c0-2.3-.152-4.05-.45-5.25-.268-1.233-.85-2.133-1.75-2.7-.9-.6-2.3-.9-4.2-.9h-3.05V36.8h3.2z"/>
    <path id="k" d="M313.646.35h5.55v40.5h-5.55V.35z"/>
    <path id="l" d="M342.598 41.3c-3.967 0-6.817-1.117-8.55-3.35-1.7-2.267-2.55-5.533-2.55-9.8V12.8c0-4.2.867-7.383 2.6-9.55 1.733-2.167 4.567-3.25 8.5-3.25s6.75 1.1 8.45 3.3c1.733 2.167 2.6 5.333 2.6 9.5v15.4c0 4.2-.867 7.433-2.6 9.7-1.733 2.267-4.55 3.4-8.45 3.4zm0-4.45c2.1 0 3.517-.617 4.25-1.85.733-1.233 1.1-3.1 1.1-5.6V11.65c0-2.467-.367-4.283-1.1-5.45-.733-1.2-2.15-1.8-4.25-1.8-2.133 0-3.567.6-4.3 1.8-.733 1.167-1.1 2.983-1.1 5.45V29.4c0 2.5.367 4.367 1.1 5.6.733 1.233 2.167 1.85 4.3 1.85z"/>
    <path id="m" d="M32.81 4.95l-22.8 22.82c-.286.28-.45.662-.456 1.063V49.8L.446 58.905C.16 59.19 0 59.578 0 59.982s.16.79.446 1.077c.286.284.674.445 1.078.445s.792-.16 1.078-.446l9.108-9.105h20.98c.4-.005.78-.17 1.06-.455l22.832-22.82c1.56-1.56 2.8-3.41 3.643-5.45.845-2.038 1.28-4.223 1.28-6.43 0-2.205-.435-4.39-1.28-6.43-.844-2.037-2.082-3.89-3.643-5.45-1.56-1.56-3.414-2.797-5.453-3.64C49.089.434 46.901 0 44.695 0c-4.458 0-8.734 1.77-11.886 4.92v.03zm-.76 44.062H14.747l9.108-9.104h17.184l-8.987 9.104zm22.376-22.364L43.74 37.328c-.233-.247-.544-.407-.88-.454H26.737l21.434-21.24c.302-.303.472-.713.472-1.14 0-.426-.17-.835-.472-1.137-.302-.302-.71-.472-1.138-.472-.427 0-.837.17-1.14.472L22.003 37.36 12.5 46.765V29.47l9.107-9.104v4.37c0 .402.16.788.445 1.073.285.283.67.443 1.073.443.403 0 .79-.16 1.074-.444.283-.286.443-.672.443-1.074v-7.283L34.966 7.106c2.58-2.58 6.08-4.03 9.73-4.03 3.65 0 7.15 1.45 9.73 4.03s4.03 6.077 4.03 9.725c0 3.65-1.45 7.147-4.03 9.727v.09z"/>
    <path id="n" d="M0 3h34v-6H0v6z"/>
  </defs>
</svg>
